svgs/solid/bacteria.svg

<svg xmlns="http://www.w3.org/2000/svg" viewBox="0 0 640 512"><!--! Font Awesome Pro 6.0.0-alpha3 by @fontawesome - https://fontawesome.com License - https://fontawesome.com/license (Commercial License) --><path d="M627.3 227.3c9.439-2.781 14.81-12.65 12-22.04c-3.039-10.21-13.57-14.52-22.14-11.95l-11.27 3.33c-8.086-15.15-20.68-27.55-36.4-35.43l2.888-11.06c1.867-7.158-1.9-22.19-17.26-22.19c-7.92 0-15.14 5.288-17.23 13.28l-2.865 10.97c-7.701-.2793-26.9-.6485-48.75 13.63L477.6 157.1c-3.777-3.873-15.44-9.779-25.19-.3691c-7.062 6.822-7.225 18.04-.3711 25.07l9.14 9.373c-11.96 18.85-10.27 28.38-15.88 46.61c-8.023-3.758-11.44-5.943-16.66-5.943c-6.689 0-13.09 3.763-16.13 10.19c-4.188 8.856-.3599 19.42 8.546 23.58l8.797 4.115c-14.91 22.05-34.42 33.57-34.83 33.83l-3.922-8.855C387.2 285.8 376.7 281.7 367.7 285.6c-9 3.959-13.08 14.42-9.115 23.39l4.041 9.127c-16.38 4.559-27.93 4.345-46.15 16.94l-9.996-9.012c-6.969-6.303-18.28-6.33-25.15 1.235c-6.609 7.26-6.053 18.47 1.24 25.04l9.713 8.756c-8.49 14.18-12.74 30.77-11.64 48.17l-11.86 3.512c-9.428 2.793-14.8 12.66-11.99 22.05c2.781 9.385 12.69 14.71 22.15 11.94l11.34-3.359c8.287 15.49 20.99 27.86 36.38 35.57l-2.839 10.85c-2.482 9.477 3.224 19.16 12.75 21.62c9.566 2.482 19.25-3.221 21.72-12.69l2.82-10.78c5.508 .1875 11.11-.1523 16.75-1.102c11.37-1.893 22.23-5.074 33.1-8.24l3.379 9.455c3.305 9.225 13.5 14.11 22.75 10.76c9.266-3.279 14.1-13.41 10.81-22.65l-3.498-9.792c15.41-6.654 30.08-14.46 43.95-23.57l6.321 8.429c5.891 7.84 17.05 9.443 24.93 3.602c7.885-5.863 9.498-16.97 3.617-24.82l-6.457-8.611c12.66-10.78 24.33-22.54 34.96-35.33l8.816 6.413c7.932 5.795 19.07 4.074 24.89-3.855c5.809-7.908 4.072-18.1-3.874-24.77l-8.885-6.465c8.893-13.88 16.54-28.52 22.99-43.91l10.47 3.59c9.334 3.186 19.43-1.719 22.64-10.99c3.211-9.258-1.739-19.35-11.04-22.53l-10.33-3.541c5.744-20.5 9.424-31.81 8.338-49.26L627.3 227.3zM416 416c-17.67 0-32-14.33-32-32c0-17.67 14.33-32 32-32c17.67 0 32 14.33 32 32C448 401.7 433.7 416 416 416zM272.3 226.4c9-3.959 13.08-14.42 9.115-23.39L277.4 193.9c16.38-4.561 27.93-4.345 46.15-16.94l9.996 9.012c6.969 6.301 18.28 6.326 25.15-1.236c6.609-7.26 6.053-18.47-1.24-25.04l-9.713-8.756c8.49-14.18 12.74-30.77 11.64-48.18l11.86-3.511c9.428-2.793 14.8-12.66 11.99-22.05c-2.781-9.385-12.69-14.71-22.15-11.94l-11.34 3.357C341.5 53.13 328.8 40.76 313.4 33.05l2.838-10.85C318.7 12.73 313 3.04 303.5 .5811c-9.566-2.482-19.25 3.222-21.72 12.69l-2.82 10.78C273.4 23.86 267.8 24.2 262.2 25.15C250.8 27.04 239.1 30.22 229.1 33.39L225.7 23.93C222.4 14.71 212.2 9.827 202.1 13.17C193.7 16.45 188.9 26.59 192.2 35.82l3.498 9.793C180.2 52.27 165.6 60.07 151.7 69.19L145.4 60.76C139.5 52.92 128.3 51.32 120.5 57.16C112.6 63.02 110.1 74.13 116.8 81.98l6.457 8.611C110.6 101.4 98.96 113.1 88.34 125.9L79.52 119.5c-7.932-5.795-19.08-4.074-24.89 3.855c-5.809 7.908-4.07 19 3.875 24.77l8.885 6.465C58.5 168.5 50.86 183.1 44.41 198.5L33.93 194.9c-9.334-3.186-19.44 1.721-22.64 10.99C8.086 215.2 13.04 225.3 22.34 228.4l10.33 3.541C26.93 252.5 23.25 263.8 24.33 281.2L12.75 284.7C3.309 287.4-2.061 297.3 .7441 306.7c3.041 10.21 13.57 14.52 22.14 11.95l11.27-3.33c8.086 15.15 20.68 27.55 36.39 35.43l-2.887 11.06c-1.865 7.156 1.902 22.19 17.26 22.19c7.92 0 15.14-5.287 17.23-13.28l2.863-10.97c7.701 .2773 26.9 .6465 48.76-13.63l8.59 8.809c3.777 3.873 15.44 9.779 25.19 .3691c7.062-6.822 7.225-18.04 .3711-25.07l-9.14-9.373c11.96-18.85 10.27-28.38 15.88-46.61c8.025 3.756 11.44 5.943 16.66 5.943c6.689 0 13.09-3.762 16.13-10.19C231.6 261.1 227.8 250.6 218.9 246.4L210.1 242.3C225 220.2 244.5 208.7 244.9 208.5l3.922 8.856C252.8 226.2 263.3 230.3 272.3 226.4zM128 256C110.3 256 96 241.7 96 223.1c0-17.67 14.33-32 32-32c17.67 0 32 14.33 32 32C160 241.7 145.7 256 128 256zM208 160c-8.836 0-16-7.164-16-16c0-8.838 7.164-16 16-16s16 7.162 16 16C224 152.8 216.8 160 208 160z"/></svg>

<svg xmlns="http://www.w3.org/2000/svg" viewBox="0 0 640 512"><!-- Font Awesome Pro 6.0.0-alpha2 by @fontawesome - https://fontawesome.com License - https://fontawesome.com/license (Commercial License) --><path d="M627.252 227.332C636.691 224.551 642.06 214.681 639.256 205.297C636.217 195.09 625.683 190.779 617.117 193.347L605.851 196.678C597.765 181.523 585.176 169.129 569.457 161.25L572.344 150.187C574.211 143.029 570.443 128 555.088 128C547.168 128 539.943 133.287 537.855 141.275L534.992 152.246C527.291 151.966 508.092 151.597 486.236 165.875L477.646 157.066C473.869 153.193 462.203 147.287 452.457 156.697C445.394 163.519 445.232 174.74 452.086 181.769L461.226 191.142C449.262 209.99 450.885 219.49 445.279 237.725C437.256 233.967 433.904 231.812 428.683 231.812C421.994 231.812 415.592 235.574 412.555 242.004C408.367 250.859 412.193 261.42 421.099 265.588L429.896 269.703C414.99 291.758 395.476 303.272 395.068 303.533L391.146 294.678C387.178 285.75 376.713 281.668 367.652 285.606C358.652 289.565 354.57 300.024 358.537 308.992L362.556 318.071C346.172 322.629 334.644 322.463 316.43 335.053L306.433 326.041C299.465 319.739 288.154 319.713 281.281 327.278C274.672 334.537 275.228 345.746 282.521 352.315L292.234 361.071C283.744 375.247 279.49 391.838 280.592 409.247L268.734 412.758C259.306 415.551 253.937 425.421 256.744 434.805C259.525 444.19 269.43 449.512 278.892 446.741L290.232 443.384C298.519 458.872 311.221 471.243 326.609 478.952L323.771 489.8C321.289 499.276 326.994 508.96 336.515 511.419C346.082 513.901 355.765 508.198 358.236 498.733L361.056 487.954C366.564 488.141 372.166 487.802 377.803 486.852C389.168 484.96 400.037 481.778 410.902 478.612L414.281 488.067C417.586 497.292 427.779 502.175 437.033 498.827C446.299 495.548 451.135 485.413 447.842 476.179L444.344 466.386C459.75 459.731 474.43 451.927 488.291 442.815L494.613 451.243C500.504 459.083 511.66 460.686 519.545 454.844C527.43 448.981 529.043 437.876 523.162 430.026L516.705 421.415C529.369 410.637 541.035 398.879 551.664 386.084L560.48 392.499C568.412 398.293 579.556 396.573 585.367 388.643C591.176 380.735 589.437 369.643 581.492 363.87L572.607 357.405C581.5 343.522 589.144 328.881 595.594 313.494L606.066 317.084C615.4 320.27 625.502 315.363 628.703 306.094C631.914 296.836 626.963 286.748 617.662 283.561L607.33 280.02C613.074 259.523 616.754 248.215 615.668 230.758L627.252 227.332ZM416 416.001C398.328 416.001 384 401.674 384 384C384 366.329 398.328 352 416 352C433.674 352 448 366.329 448 384C448 401.674 433.674 416.001 416 416.001ZM272.347 226.394C281.347 222.435 285.43 211.976 281.463 203.008L277.443 193.929C293.828 189.369 305.355 189.537 323.57 176.947L333.566 185.959C340.535 192.26 351.847 192.285 358.719 184.722C365.328 177.463 364.771 166.254 357.478 159.685L347.765 150.929C356.256 136.753 360.51 120.162 359.408 102.753L371.265 99.242C380.693 96.449 386.062 86.579 383.256 77.195C380.474 67.81 370.57 62.488 361.107 65.259L349.767 68.616C341.48 53.128 328.779 40.757 313.39 33.048L316.228 22.2C318.711 12.724 313.006 3.04 303.484 0.581C293.918 -1.901 284.234 3.802 281.763 13.267L278.943 24.046C273.435 23.859 267.834 24.198 262.197 25.148C250.832 27.04 239.963 30.222 229.097 33.388L225.719 23.933C222.414 14.708 212.221 9.825 202.967 13.173C193.701 16.452 188.865 26.587 192.158 35.821L195.656 45.614C180.25 52.269 165.57 60.073 151.709 69.185L145.387 60.757C139.496 52.917 128.34 51.314 120.455 57.156C112.57 63.019 110.957 74.124 116.838 81.974L123.295 90.585C110.631 101.363 98.965 113.121 88.336 125.916L79.519 119.501C71.588 113.707 60.443 115.427 54.633 123.357C48.824 131.265 50.562 142.357 58.508 148.13L67.392 154.595C58.5 168.478 50.855 183.119 44.406 198.506L33.933 194.916C24.599 191.73 14.498 196.637 11.297 205.906C8.086 215.164 13.037 225.252 22.338 228.439L32.67 231.98C26.928 252.477 23.246 263.783 24.332 281.242L12.748 284.668C3.308 287.449 -2.061 297.319 0.744 306.703C3.785 316.908 14.318 321.221 22.883 318.653L34.148 315.322C42.234 330.477 54.824 342.871 70.543 350.75L67.656 361.813C65.791 368.969 69.558 384 84.912 384C92.832 384 100.056 378.713 102.144 370.725L105.008 359.754C112.709 360.032 131.908 360.401 153.763 346.125L162.353 354.934C166.131 358.807 177.797 364.713 187.543 355.303C194.605 348.481 194.767 337.26 187.914 330.231L178.773 320.858C190.738 302.01 189.115 292.51 194.721 274.275C202.746 278.031 206.096 280.188 211.316 280.188C218.006 280.188 224.408 276.426 227.445 269.996C231.633 261.141 227.806 250.58 218.9 246.412L210.103 242.297C225.01 220.242 244.523 208.726 244.931 208.467L248.853 217.322C252.822 226.248 263.289 230.33 272.347 226.394ZM128 256C110.326 256 96 241.672 96 224C96 206.326 110.326 192 128 192C145.672 192 160 206.326 160 224C160 241.672 145.672 256 128 256ZM208.002 160C199.166 160 192.002 152.836 192.002 144C192.002 135.162 199.166 128 208.002 128S224.002 135.162 224.002 144C224.002 152.836 216.838 160 208.002 160Z"/></svg>
